X: 2
T: Gurteen Cross
Z: ceolachan
S: https://thesession.org/tunes/1564#setting14973
R: polka
M: 2/4
L: 1/8
K: Gmaj
|: GB AB/A/ | Gg e/f/g/e/ | dB AG/A/ | B>A G/F/E/D/ |GB AB/A/ | Gg e/f/g/e/ | dB AG/A/ |[1 BG G2 :|[2 BG G>A ||Bd g>d | Bd g>d | Bd ge | f2 fg |a>g e/f/g/e/ | dB AG/A/ | Be d/B/A/B/ |[1 G2 G>A :|[2 G2 G2 ||
